www/assets/icons/nordic_walking.svg

<svg xmlns="http://www.w3.org/2000/svg" width="24" height="24" viewBox="0 0 24 24" fill='currentColor'><path d="M19.5 22.75H18v-9h1.5zm-11.47-9H6.5l-2 9h1.53zM14 5.25c1.1 0 2-.9 2-2s-.9-2-2-2-2 .9-2 2 .9 2 2 2m-3.7 3.4-2.8 14.1h2.1l1.8-8 2.1 2v6h2v-7.5l-2.1-2 .6-3c1.3 1.5 3.3 2.5 5.5 2.5v-2c-1.9 0-3.5-1-4.3-2.4l-1-1.6a2.145 2.145 0 0 0-2.65-.84L6.5 8.05v4.7h2v-3.4z"/></svg>

<svg width="24" height="24" viewBox="0 0 24 24" xmlns="http://www.w3.org/2000/svg" fill='currentColor'><path d="M19.5 22.75H18V13.75H19.5V22.75ZM8.03 13.75H6.5L4.5 22.75H6.03L8.03 13.75ZM14 5.25C15.1 5.25 16 4.35 16 3.25C16 2.15 15.1 1.25 14 1.25C12.9 1.25 12 2.15 12 3.25C12 4.35 12.9 5.25 14 5.25ZM10.3 8.65L7.5 22.75H9.6L11.4 14.75L13.5 16.75V22.75H15.5V15.25L13.4 13.25L14 10.25C15.3 11.75 17.3 12.75 19.5 12.75V10.75C17.6 10.75 16 9.75 15.2 8.35L14.2 6.75C13.64 5.86 12.52 5.5 11.55 5.91L6.5 8.05V12.75H8.5V9.35L10.3 8.65Z"/></svg>
